Newaita/actions/22/address-book-new.svg

<?xml version="1.0" encoding="UTF-8"?>
<svg xmlns="http://www.w3.org/2000/svg" xmlns:xlink="http://www.w3.org/1999/xlink" width="22pt" height="22pt" viewBox="0 0 22 22" version="1.1">
<g id="surface1">
<path style=" stroke:none;fill-rule:nonzero;fill:rgb(25.882354%,64.705884%,96.078432%);fill-opacity:1;" d="M 8.453125 7.449219 L 15.652344 7.449219 C 16.050781 7.449219 16.371094 7.753906 16.371094 8.128906 C 16.371094 8.507812 16.050781 8.8125 15.652344 8.8125 L 8.453125 8.8125 C 8.054688 8.8125 7.730469 8.507812 7.730469 8.128906 C 7.730469 7.753906 8.054688 7.449219 8.453125 7.449219 Z M 8.453125 7.449219 "/>
<path style=" stroke:none;fill-rule:nonzero;fill:rgb(25.882354%,64.705884%,96.078432%);fill-opacity:1;" d="M 8.453125 11.085938 L 15.652344 11.085938 C 16.050781 11.085938 16.371094 11.390625 16.371094 11.769531 C 16.371094 12.144531 16.050781 12.453125 15.652344 12.453125 L 8.453125 12.453125 C 8.054688 12.453125 7.730469 12.144531 7.730469 11.769531 C 7.730469 11.390625 8.054688 11.085938 8.453125 11.085938 Z M 8.453125 11.085938 "/>
<path style=" stroke:none;fill-rule:nonzero;fill:rgb(25.882354%,25.882354%,25.882354%);fill-opacity:1;" d="M 3.636719 1.082031 L 3.636719 21.09375 L 19.101562 21.09375 C 19.855469 21.09375 20.464844 20.484375 20.464844 19.726562 L 20.464844 2.445312 C 20.464844 1.691406 19.855469 1.082031 19.101562 1.082031 Z M 5.914062 2.445312 L 18.191406 2.445312 C 18.695312 2.445312 19.101562 2.851562 19.101562 3.355469 L 19.101562 18.820312 C 19.101562 19.324219 18.695312 19.726562 18.191406 19.726562 L 5.914062 19.726562 C 5.410156 19.726562 5.003906 19.324219 5.003906 18.820312 L 5.003906 3.355469 C 5.003906 2.851562 5.410156 2.445312 5.914062 2.445312 Z M 5.914062 2.445312 "/>
<path style=" stroke:none;fill-rule:nonzero;fill:rgb(25.882354%,64.705884%,96.078432%);fill-opacity:1;" d="M 1.820312 1.082031 C 1.316406 1.082031 0.910156 1.488281 0.910156 1.992188 L 0.910156 20.183594 C 0.910156 20.6875 1.316406 21.09375 1.820312 21.09375 L 3.183594 21.09375 L 3.183594 1.082031 Z M 1.820312 1.082031 "/>
</g>
</svg>

<svg xmlns="http://www.w3.org/2000/svg" width="22pt" height="22pt" viewBox="0 0 22 22"><path d="M8.453 7.45h7.2c.398 0 .718.304.718.679 0 .379-.32.684-.719.684H8.453c-.398 0-.723-.305-.723-.684 0-.375.325-.68.723-.68zm0 0M8.453 11.086h7.2c.398 0 .718.305.718.684 0 .375-.32.683-.719.683H8.453c-.398 0-.723-.308-.723-.683 0-.38.325-.684.723-.684zm0 0" fill="#42a5f5"/><path d="M3.637 1.082v20.012h15.465c.753 0 1.363-.61 1.363-1.367V2.445c0-.754-.61-1.363-1.363-1.363zm2.277 1.363h12.277c.504 0 .91.407.91.91V18.82a.905.905 0 0 1-.91.907H5.914a.905.905 0 0 1-.91-.907V3.355c0-.503.406-.91.91-.91zm0 0" fill="#424242"/><path d="M1.82 1.082a.909.909 0 0 0-.91.91v18.192c0 .503.406.91.91.91h1.364V1.082zm0 0" fill="#42a5f5"/></svg>
